X:1
T:Vanessa Picklegin
M:4/4
L:1/8
K:F
 C2| F2 FF G2 G2|A-G FE D2 CC| D2 F2 G2 E2| F- F4 z| CC| F2 FF G2 G2|\
 AG FE D2 CC| D2 F2 F2 E2| F4 z2| AA| cc c2 A2 AA| B2 B2 G2 GG| A2 c2 B2 A2|\
 G4 z2| CC| F2 FF G2 GG|A-GF-E D2 CC| D2 F2 F2 E2| F4 z2| A2| c2 cc A2 A2|\
 B2 B2 G2 GG| A2 c2 B2 A2| G2 CC C2| CC| FF FF G G2 G|A-GF-E DD CC|\
 D2 F2 F2E/2-F/2 E| F2 z4||

